images/icons/breadcrumbs-arrow.svg

<svg width="4" height="8" viewBox="0 0 4 8" fill="none" xmlns="http://www.w3.org/2000/svg">
<path opacity="0.2" d="M3.775 3.6251L0.775 0.625098C0.575 0.425098 0.275 0.425098 0.075 0.625098C-0.025 0.825098 -0.025 1.2251 0.075 1.4251L2.675 4.0251L0.075 6.6251C-0.025 6.8251 -0.025 7.1251 0.075 7.3251C0.175 7.4251 0.375 7.5251 0.475 7.5251C0.575 7.5251 0.775 7.4251 0.875 7.4251L3.875 4.4251C3.875 4.3251 3.975 4.1251 3.975 4.0251C3.975 3.9251 3.875 3.7251 3.775 3.6251Z" fill="black"/>
</svg>

<svg width="4" height="8" viewBox="0 0 4 8" fill="none" xmlns="http://www.w3.org/2000/svg"><path opacity=".2" d="m3.77 3.63-3-3c-.2-.2-.5-.2-.7 0-.1.2-.1.6 0 .8l2.6 2.6-2.6 2.6c-.1.2-.1.5 0 .7.1.1.3.2.4.2.1 0 .3-.1.4-.1l3-3c0-.1.1-.3.1-.4 0-.1-.1-.3-.2-.4Z" fill="#000"/></svg>
